icons/sensor-line.svg

<svg xmlns="http://www.w3.org/2000/svg" width="24" height="24" fill="none"><g clip-path="url(#a)"><g><path fill="#121212" d="M6 8V19H18V8H15V2H17V6H22V8H20V20C20 20.2652 19.8946 20.5196 19.7071 20.7071C19.5196 20.8946 19.2652 21 19 21H5C4.73478 21 4.48043 20.8946 4.29289 20.7071C4.10536 20.5196 4 20.2652 4 20V8H2V6H7V2H9V8H6ZM13 2V8H11V2H13Z"/></g></g><defs><clipPath id="a"><rect width="24" height="24" fill="white"/></clipPath></defs></svg>

<svg width="24" height="24" fill="none" xmlns="http://www.w3.org/2000/svg"><g clip-path="url(#a)"><path d="M6 8v11h12V8h-3V2h2v4h5v2h-2v12a1 1 0 0 1-1 1H5a1 1 0 0 1-1-1V8H2V6h5V2h2v6H6Zm7-6v6h-2V2h2Z" /></g><defs><clipPath id="a"><path fill="#fff" d="M0 0h24v24H0z"/></clipPath></defs></svg>
